third_party/noto/noto_2/emoji_u1f350.svg

<svg enable-background="new 0 0 128 128" viewBox="0 0 128 128" xmlns="http://www.w3.org/2000/svg"><radialGradient id="c" cx="48.894" cy="67.379" r="50.121" gradientTransform="matrix(1.0129 .2805 -.3725 1.1507 24.059 -23.289)" gradientUnits="userSpaceOnUse"><stop stop-color="#E9F285" offset="0"/><stop stop-color="#E8F182" offset=".21"/><stop stop-color="#E3ED79" offset=".3563"/><stop stop-color="#DCE76A" offset=".4831"/><stop stop-color="#D2DE54" offset=".5989"/><stop stop-color="#C4D338" offset=".7062"/><stop stop-color="#BFCF2D" offset=".7411"/><stop stop-color="#B7B817" offset=".9601"/></radialGradient><path d="m60.94 16.73c-6.22 1.26-12.51 8.31-14.63 17.6s-6.81 22.67-14.63 33.58c-7.63 10.65-16.95 50.76 29.08 55.18 43.07 4.13 49.49-36.09 41.24-51.92-7.96-15.27-13.04-26.57-14.63-37s-7.05-21.35-26.43-17.44z" fill="url(#c)"/><g opacity=".2"><path d="m68.4 18.92c9.29 0 14.38 4.99 16.01 15.71 1.66 10.94 6.95 22.63 14.93 37.94 3.94 7.54 4.09 21.81-2.47 32.63-4.2 6.93-12.84 15.19-30.11 15.19-1.84 0-3.76-0.09-5.71-0.28-15.52-1.49-25.66-7.24-30.14-17.09-5.67-12.47-0.7-27.88 3.22-33.35 9.55-13.35 13.74-28.69 15.1-34.67 1.99-8.75 7.82-14.43 12.29-15.33 2.49-0.5 4.8-0.75 6.88-0.75m0-3c-2.22 0-4.7 0.26-7.46 0.81-6.22 1.26-12.51 8.31-14.63 17.6-2.12 9.3-6.81 22.67-14.63 33.58-7.63 10.65-16.95 50.76 29.08 55.18 2.08 0.2 4.08 0.3 5.99 0.3 37.67 0 43.1-37.15 35.24-52.21-7.96-15.27-13.04-26.57-14.63-37-1.35-8.95-5.56-18.26-18.96-18.26z" fill="#1E3D11"/></g><linearGradient id="b" x1="50.914" x2="65.961" y1="12.937" y2="12.937" gradientUnits="userSpaceOnUse"><stop stop-color="#7CB342" offset="0"/><stop stop-color="#79B041" offset=".3615"/><stop stop-color="#70A73C" offset=".6128"/><stop stop-color="#689F38" offset=".7411"/></linearGradient><path d="m52.41 17.52c-0.26 0-0.51-0.07-0.75-0.2-0.72-0.42-0.96-1.33-0.55-2.05 0.27-0.47 2.94-4.64 13.02-6.87 0.81-0.18 1.61 0.33 1.79 1.14s-0.33 1.61-1.14 1.79c-8.84 1.96-11.05 5.41-11.07 5.44-0.28 0.48-0.78 0.75-1.3 0.75z" fill="url(#b)"/><path d="m64.46 8.36c-0.11 0-0.22 0.01-0.33 0.04-10.08 2.23-12.75 6.4-13.02 6.87-0.42 0.72-0.17 1.63 0.55 2.05 0.24 0.14 0.5 0.2 0.75 0.2 0.52 0 1.02-0.27 1.3-0.75 0.02-0.03 2.24-3.49 11.07-5.44 0.81-0.18 1.32-0.98 1.14-1.79-0.15-0.7-0.77-1.18-1.46-1.18z" fill="#424242" opacity=".2"/><path d="M67,7c0.5-0.5,1.25-1.25,1.75-2.12c-0.01-1.21-0.79-1.45-3.75,0.5c0,0-0.33,0.48-0.37,1.78 C65.38,7.16,66.19,7,67,7z" fill="#1E3D11"/><path d="M68.25,7.88c0.24-1.18,0.51-2.26,0.5-3C68.25,5.75,67.5,6.5,67,7c-0.81,0-1.62,0.16-2.37,0.16 c0,0.15-0.01,0.3-0.01,0.47c0.04,2.04,0.38,8.29,0.21,10.62c-0.14,1.94-2.71,4.38,0.17,4.38s4.75-1.38,4-3.38S67.62,11,68.25,7.88 z" fill="#606400"/><g opacity=".2"><path d="m67.75 5.01c-0.02 0.48-0.17 1.19-0.33 1.94-0.05 0.24-0.1 0.48-0.15 0.73-0.68 3.41 0.01 9.84 0.79 11.92 0.2 0.54 0.06 0.84-0.06 1.02-0.33 0.48-1.3 1-3 1-0.13 0-0.23-0.01-0.31-0.01 0.08-0.26 0.26-0.65 0.39-0.93 0.33-0.72 0.69-1.53 0.75-2.36 0.13-1.75-0.02-5.53-0.12-8.29-0.04-1.01-0.07-1.87-0.08-2.43v-0.42c0.02-0.59 0.1-0.95 0.16-1.14 1.05-0.66 1.64-0.93 1.96-1.03m-1.9 0.89m2.2-1.96c-0.56 0-1.51 0.42-3.05 1.44 0 0-0.33 0.48-0.37 1.78 0 0.15-0.01 0.3-0.01 0.47 0.04 2.04 0.38 8.29 0.21 10.62-0.14 1.94-2.71 4.38 0.17 4.38s4.75-1.38 4-3.38-1.38-8.25-0.75-11.37c0.24-1.18 0.51-2.26 0.5-3-0.01-0.58-0.19-0.94-0.7-0.94z" fill="#1E3D11"/></g><linearGradient id="a" x1="25.923" x2="55.923" y1="39.921" y2="10.171" gradientUnits="userSpaceOnUse"><stop stop-color="#7CB342" offset="0"/><stop stop-color="#79B041" offset=".3615"/><stop stop-color="#70A73C" offset=".6128"/><stop stop-color="#689F38" offset=".7411"/></linearGradient><path d="m58 11.5s-29.75-9-33 29.5c0 0 32-1.25 33-29.5z" fill="url(#a)"/><g opacity=".2"><path d="m50.76 13.59c1.58 0 2.98 0.14 4.06 0.31-1.04 9.16-6.02 15.94-14.82 20.16-4.33 2.07-8.68 3.07-11.6 3.54 2.8-19.73 13.56-24.01 22.36-24.01m0-3c-9.03 0-23.55 4.17-25.76 30.41 0 0 32-1.25 33-29.5 0 0-3.02-0.91-7.24-0.91z" fill="#1E3D11"/></g></svg>

<svg width="128" height="128" style="enable-background:new 0 0 128 128;" xmlns="http://www.w3.org/2000/svg" xmlns:xlink="http://www.w3.org/1999/xlink">
  <g id="Layer_1">
    <g>
      <radialGradient id="SVGID_1_" cx="48.8939" cy="67.3791" gradientTransform="matrix(1.0129 0.2805 -0.3725 1.1507 24.0588 -23.2888)" gradientUnits="userSpaceOnUse" r="50.1209">
        <stop offset="0" style="stop-color:#E9F285"/>
        <stop offset="0.21" style="stop-color:#E8F182"/>
        <stop offset="0.3563" style="stop-color:#E3ED79"/>
        <stop offset="0.4831" style="stop-color:#DCE76A"/>
        <stop offset="0.5989" style="stop-color:#D2DE54"/>
        <stop offset="0.7062" style="stop-color:#C4D338"/>
        <stop offset="0.7411" style="stop-color:#BFCF2D"/>
        <stop offset="0.9601" style="stop-color:#B7B817"/>
      </radialGradient>
      <path d="M60.94,16.73c-6.22,1.26-12.51,8.31-14.63,17.6S39.5,57,31.68,67.91 c-7.63,10.65-16.95,50.76,29.08,55.18C103.83,127.22,110.25,87,102,71.17c-7.96-15.27-13.04-26.57-14.63-37 C85.78,23.74,80.32,12.82,60.94,16.73z" style="fill:url(#SVGID_1_);"/>
      <g style="opacity:0.2;">
        <path d="M68.4,18.92c9.29,0,14.38,4.99,16.01,15.71c1.66,10.94,6.95,22.63,14.93,37.94 c3.94,7.54,4.09,21.81-2.47,32.63c-4.2,6.93-12.84,15.19-30.11,15.19c-1.84,0-3.76-0.09-5.71-0.28 c-15.52-1.49-25.66-7.24-30.14-17.09c-5.67-12.47-0.7-27.88,3.22-33.35C43.68,56.32,47.87,40.98,49.23,35 c1.99-8.75,7.82-14.43,12.29-15.33C64.01,19.17,66.32,18.92,68.4,18.92 M68.4,15.92c-2.22,0-4.7,0.26-7.46,0.81 c-6.22,1.26-12.51,8.31-14.63,17.6C44.19,43.63,39.5,57,31.68,67.91c-7.63,10.65-16.95,50.76,29.08,55.18 c2.08,0.2,4.08,0.3,5.99,0.3c37.67,0,43.1-37.15,35.24-52.21c-7.96-15.27-13.04-26.57-14.63-37 C86.01,25.23,81.8,15.92,68.4,15.92L68.4,15.92z" style="fill:#1E3D11;"/>
      </g>
    </g>
    <g>
      <linearGradient id="SVGID_3_" gradientUnits="userSpaceOnUse" x1="50.9142" x2="65.9608" y1="12.9371" y2="12.9371">
        <stop offset="0" style="stop-color:#7CB342"/>
        <stop offset="0.3615" style="stop-color:#79B041"/>
        <stop offset="0.6128" style="stop-color:#70A73C"/>
        <stop offset="0.7411" style="stop-color:#689F38"/>
      </linearGradient>
      <path d="M52.41,17.52c-0.26,0-0.51-0.07-0.75-0.2c-0.72-0.42-0.96-1.33-0.55-2.05 c0.27-0.47,2.94-4.64,13.02-6.87c0.81-0.18,1.61,0.33,1.79,1.14c0.18,0.81-0.33,1.61-1.14,1.79c-8.84,1.96-11.05,5.41-11.07,5.44 C53.43,17.25,52.93,17.52,52.41,17.52z" style="fill:url(#SVGID_3_);"/>
      <path d="M64.46,8.36c-0.11,0-0.22,0.01-0.33,0.04c-10.08,2.23-12.75,6.4-13.02,6.87 c-0.42,0.72-0.17,1.63,0.55,2.05c0.24,0.14,0.5,0.2,0.75,0.2c0.52,0,1.02-0.27,1.3-0.75c0.02-0.03,2.24-3.49,11.07-5.44 c0.81-0.18,1.32-0.98,1.14-1.79C65.77,8.84,65.15,8.36,64.46,8.36L64.46,8.36z" style="opacity:0.2;fill:#424242;"/>
    </g>
    <g>
      <path d="M67,7c0.5-0.5,1.25-1.25,1.75-2.12c-0.01-1.21-0.79-1.45-3.75,0.5c0,0-0.33,0.48-0.37,1.78 C65.38,7.16,66.19,7,67,7z" style="fill:#1E3D11;"/>
      <path d="M68.25,7.88c0.24-1.18,0.51-2.26,0.5-3C68.25,5.75,67.5,6.5,67,7c-0.81,0-1.62,0.16-2.37,0.16 c0,0.15-0.01,0.3-0.01,0.47c0.04,2.04,0.38,8.29,0.21,10.62c-0.14,1.94-2.71,4.38,0.17,4.38s4.75-1.38,4-3.38S67.62,11,68.25,7.88 z" style="fill:#606400;"/>
    </g>
    <g style="opacity:0.2;">
      <path d="M67.75,5.01c-0.02,0.48-0.17,1.19-0.33,1.94c-0.05,0.24-0.1,0.48-0.15,0.73 c-0.68,3.41,0.01,9.84,0.79,11.92c0.2,0.54,0.06,0.84-0.06,1.02c-0.33,0.48-1.3,1-3,1c-0.13,0-0.23-0.01-0.31-0.01 c0.08-0.26,0.26-0.65,0.39-0.93c0.33-0.72,0.69-1.53,0.75-2.36c0.13-1.75-0.02-5.53-0.12-8.29c-0.04-1.01-0.07-1.87-0.08-2.43 c0-0.15,0-0.28,0-0.42c0.02-0.59,0.1-0.95,0.16-1.14C66.84,5.38,67.43,5.11,67.75,5.01 M65.85,5.9L65.85,5.9L65.85,5.9 M68.05,3.94c-0.56,0-1.51,0.42-3.05,1.44c0,0-0.33,0.48-0.37,1.78c0,0.15-0.01,0.3-0.01,0.47c0.04,2.04,0.38,8.29,0.21,10.62 c-0.14,1.94-2.71,4.38,0.17,4.38s4.75-1.38,4-3.38S67.62,11,68.25,7.88c0.24-1.18,0.51-2.26,0.5-3 C68.74,4.3,68.56,3.94,68.05,3.94L68.05,3.94z" style="fill:#1E3D11;"/>
    </g>
    <g>
      <linearGradient id="SVGID_4_" gradientUnits="userSpaceOnUse" x1="25.9234" x2="55.9234" y1="39.9206" y2="10.1706">
        <stop offset="0" style="stop-color:#7CB342"/>
        <stop offset="0.3615" style="stop-color:#79B041"/>
        <stop offset="0.6128" style="stop-color:#70A73C"/>
        <stop offset="0.7411" style="stop-color:#689F38"/>
      </linearGradient>
      <path d="M58,11.5c0,0-29.75-9-33,29.5C25,41,57,39.75,58,11.5z" style="fill:url(#SVGID_4_);"/>
      <g style="opacity:0.2;">
        <path d="M50.76,13.59c1.58,0,2.98,0.14,4.06,0.31C53.78,23.06,48.8,29.84,40,34.06 c-4.33,2.07-8.68,3.07-11.6,3.54C31.2,17.87,41.96,13.59,50.76,13.59 M50.76,10.59C41.73,10.59,27.21,14.76,25,41 c0,0,32-1.25,33-29.5C58,11.5,54.98,10.59,50.76,10.59L50.76,10.59z" style="fill:#1E3D11;"/>
      </g>
    </g>
  </g>
  <g id="Layer_2" style="display:none;">
    <g style="display:inline;">
      <g style="opacity:0.6;">
        <circle cx="64" cy="64" r="28" style="opacity:0.61;fill:none;stroke:#000000;stroke-width:0.2625;stroke-miterlimit:10;"/>
        <line style="opacity:0.61;fill:none;stroke:#000000;stroke-width:0.25;stroke-miterlimit:10;" x1="84" x2="84" y1="0" y2="128"/>
        <line style="opacity:0.61;fill:none;stroke:#000000;stroke-width:0.25;stroke-miterlimit:10;" x1="44" x2="44" y1="0" y2="128"/>
        <line style="opacity:0.61;fill:none;stroke:#000000;stroke-width:0.25;stroke-miterlimit:10;" x1="64" x2="64" y1="0" y2="128"/>
        <line style="opacity:0.61;fill:none;stroke:#000000;stroke-width:0.25;stroke-miterlimit:10;" x1="128" x2="0" y1="64" y2="64"/>
        <line style="opacity:0.61;fill:none;stroke:#000000;stroke-width:0.25;stroke-miterlimit:10;" x1="128" x2="0" y1="44" y2="44"/>
        <line style="opacity:0.61;fill:none;stroke:#000000;stroke-width:0.25;stroke-miterlimit:10;" x1="128" x2="0" y1="83.75" y2="83.75"/>
        <line style="opacity:0.61;fill:none;stroke:#000000;stroke-width:0.25;stroke-miterlimit:10;" x1="128" x2="0" y1="128" y2="0"/>
        <line style="opacity:0.61;fill:none;stroke:#000000;stroke-width:0.25;stroke-miterlimit:10;" x1="0" x2="128" y1="128" y2="0"/>
        <g style="opacity:0.61;">
          <path d="M64,4.26c32.94,0,59.74,26.8,59.74,59.74S96.94,123.74,64,123.74S4.26,96.94,4.26,64S31.06,4.26,64,4.26 M64,4 C30.86,4,4,30.86,4,64s26.86,60,60,60s60-26.86,60-60S97.14,4,64,4L64,4z"/>
        </g>
        <path d="M107.97,115.97H20.03 c-4.42,0-8.03-3.61-8.03-8.03V20.03c0-4.42,3.61-8.03,8.03-8.03h87.94c4.42,0,8.03,3.61,8.03,8.03v87.91 C116,112.36,112.39,115.97,107.97,115.97z" style="opacity:0.61;fill:none;stroke:#000000;stroke-width:0.2578;stroke-miterlimit:10;"/>
        <path d="M100,124H28c-4.4,0-8-3.6-8-8 V12c0-4.4,3.6-8,8-8h72c4.4,0,8,3.6,8,8v104C108,120.4,104.4,124,100,124z" style="opacity:0.61;fill:none;stroke:#000000;stroke-width:0.2628;stroke-miterlimit:10;"/>
        <path d="M113.77,108H14.23 C8.6,108,4,103.4,4,97.77V30.28c0-5.63,4.6-10.23,10.23-10.23h99.54c5.63,0,10.23,4.6,10.23,10.23v67.48 C124,103.4,119.4,108,113.77,108z" style="opacity:0.61;fill:none;stroke:#000000;stroke-width:0.2627;stroke-miterlimit:10;"/>
      </g>
      <g>
        <g style="opacity:0.2;">
          <defs>
            <rect id="SVGID_2_" height="128" style="opacity:0.2;" width="128" x="0" y="0"/>
          </defs>
          <clipPath id="SVGID_5_">
            <use style="overflow:visible;" xlink:href="#SVGID_2_"/>
          </clipPath>
          <g style="clip-path:url(#SVGID_5_);">
            <g>
              <line style="fill:none;stroke:#000000;stroke-width:0.25;stroke-miterlimit:10;" x1="-28" x2="-28" y1="160" y2="-32"/>
              <line style="fill:none;stroke:#000000;stroke-width:0.25;stroke-miterlimit:10;" x1="-24" x2="-24" y1="160" y2="-32"/>
              <line style="fill:none;stroke:#000000;stroke-width:0.25;stroke-miterlimit:10;" x1="-20" x2="-20" y1="160" y2="-32"/>
              <line style="fill:none;stroke:#000000;stroke-width:0.25;stroke-miterlimit:10;" x1="-16" x2="-16" y1="160" y2="-32"/>
              <line style="fill:none;stroke:#000000;stroke-width:0.25;stroke-miterlimit:10;" x1="-12" x2="-12" y1="160" y2="-32"/>
              <line style="fill:none;stroke:#000000;stroke-width:0.25;stroke-miterlimit:10;" x1="-8" x2="-8" y1="160" y2="-32"/>
              <line style="fill:none;stroke:#000000;stroke-width:0.25;stroke-miterlimit:10;" x1="-4" x2="-4" y1="160" y2="-32"/>
              <line style="fill:none;stroke:#000000;stroke-width:0.25;stroke-miterlimit:10;" x1="0" x2="0" y1="160" y2="-32"/>
              <line style="fill:none;stroke:#000000;stroke-width:0.25;stroke-miterlimit:10;" x1="4" x2="4" y1="160" y2="-32"/>
              <line style="fill:none;stroke:#000000;stroke-width:0.25;stroke-miterlimit:10;" x1="8" x2="8" y1="160" y2="-32"/>
              <line style="fill:none;stroke:#000000;stroke-width:0.25;stroke-miterlimit:10;" x1="12" x2="12" y1="160" y2="-32"/>
              <line style="fill:none;stroke:#000000;stroke-width:0.25;stroke-miterlimit:10;" x1="16" x2="16" y1="160" y2="-32"/>
              <line style="fill:none;stroke:#000000;stroke-width:0.25;stroke-miterlimit:10;" x1="20" x2="20" y1="160" y2="-32"/>
              <line style="fill:none;stroke:#000000;stroke-width:0.25;stroke-miterlimit:10;" x1="24" x2="24" y1="160" y2="-32"/>
              <line style="fill:none;stroke:#000000;stroke-width:0.25;stroke-miterlimit:10;" x1="28" x2="28" y1="160" y2="-32"/>
              <line style="fill:none;stroke:#000000;stroke-width:0.25;stroke-miterlimit:10;" x1="32" x2="32" y1="160" y2="-32"/>
              <line style="fill:none;stroke:#000000;stroke-width:0.25;stroke-miterlimit:10;" x1="36" x2="36" y1="160" y2="-32"/>
              <line style="fill:none;stroke:#000000;stroke-width:0.25;stroke-miterlimit:10;" x1="40" x2="40" y1="160" y2="-32"/>
              <line style="fill:none;stroke:#000000;stroke-width:0.25;stroke-miterlimit:10;" x1="44" x2="44" y1="160" y2="-32"/>
              <line style="fill:none;stroke:#000000;stroke-width:0.25;stroke-miterlimit:10;" x1="48" x2="48" y1="160" y2="-32"/>
              <line style="fill:none;stroke:#000000;stroke-width:0.25;stroke-miterlimit:10;" x1="52" x2="52" y1="160" y2="-32"/>
              <line style="fill:none;stroke:#000000;stroke-width:0.25;stroke-miterlimit:10;" x1="56" x2="56" y1="160" y2="-32"/>
              <line style="fill:none;stroke:#000000;stroke-width:0.25;stroke-miterlimit:10;" x1="60" x2="60" y1="160" y2="-32"/>
              <line style="fill:none;stroke:#000000;stroke-width:0.25;stroke-miterlimit:10;" x1="64" x2="64" y1="160" y2="-32"/>
              <line style="fill:none;stroke:#000000;stroke-width:0.25;stroke-miterlimit:10;" x1="68" x2="68" y1="160" y2="-32"/>
              <line style="fill:none;stroke:#000000;stroke-width:0.25;stroke-miterlimit:10;" x1="72" x2="72" y1="160" y2="-32"/>
              <line style="fill:none;stroke:#000000;stroke-width:0.25;stroke-miterlimit:10;" x1="76" x2="76" y1="160" y2="-32"/>
              <line style="fill:none;stroke:#000000;stroke-width:0.25;stroke-miterlimit:10;" x1="80" x2="80" y1="160" y2="-32"/>
              <line style="fill:none;stroke:#000000;stroke-width:0.25;stroke-miterlimit:10;" x1="84" x2="84" y1="160" y2="-32"/>
              <line style="fill:none;stroke:#000000;stroke-width:0.25;stroke-miterlimit:10;" x1="88" x2="88" y1="160" y2="-32"/>
              <line style="fill:none;stroke:#000000;stroke-width:0.25;stroke-miterlimit:10;" x1="92" x2="92" y1="160" y2="-32"/>
              <line style="fill:none;stroke:#000000;stroke-width:0.25;stroke-miterlimit:10;" x1="96" x2="96" y1="160" y2="-32"/>
              <line style="fill:none;stroke:#000000;stroke-width:0.25;stroke-miterlimit:10;" x1="100" x2="100" y1="160" y2="-32"/>
              <line style="fill:none;stroke:#000000;stroke-width:0.25;stroke-miterlimit:10;" x1="104" x2="104" y1="160" y2="-32"/>
              <line style="fill:none;stroke:#000000;stroke-width:0.25;stroke-miterlimit:10;" x1="108" x2="108" y1="160" y2="-32"/>
              <line style="fill:none;stroke:#000000;stroke-width:0.25;stroke-miterlimit:10;" x1="112" x2="112" y1="160" y2="-32"/>
              <line style="fill:none;stroke:#000000;stroke-width:0.25;stroke-miterlimit:10;" x1="116" x2="116" y1="160" y2="-32"/>
              <line style="fill:none;stroke:#000000;stroke-width:0.25;stroke-miterlimit:10;" x1="120" x2="120" y1="160" y2="-32"/>
              <line style="fill:none;stroke:#000000;stroke-width:0.25;stroke-miterlimit:10;" x1="124" x2="124" y1="160" y2="-32"/>
              <line style="fill:none;stroke:#000000;stroke-width:0.25;stroke-miterlimit:10;" x1="128" x2="128" y1="160" y2="-32"/>
              <line style="fill:none;stroke:#000000;stroke-width:0.25;stroke-miterlimit:10;" x1="132" x2="132" y1="160" y2="-32"/>
              <line style="fill:none;stroke:#000000;stroke-width:0.25;stroke-miterlimit:10;" x1="136" x2="136" y1="160" y2="-32"/>
              <line style="fill:none;stroke:#000000;stroke-width:0.25;stroke-miterlimit:10;" x1="137" x2="137" y1="166.05" y2="-25.95"/>
              <line style="fill:none;stroke:#000000;stroke-width:0.25;stroke-miterlimit:10;" x1="144" x2="144" y1="160" y2="-32"/>
              <line style="fill:none;stroke:#000000;stroke-width:0.25;stroke-miterlimit:10;" x1="148" x2="148" y1="160" y2="-32"/>
              <line style="fill:none;stroke:#000000;stroke-width:0.25;stroke-miterlimit:10;" x1="152" x2="152" y1="160" y2="-32"/>
              <line style="fill:none;stroke:#000000;stroke-width:0.25;stroke-miterlimit:10;" x1="156" x2="156" y1="160" y2="-32"/>
            </g>
            <g>
              <line style="fill:none;stroke:#000000;stroke-width:0.25;stroke-miterlimit:10;" x1="-32" x2="160" y1="-28" y2="-28"/>
              <line style="fill:none;stroke:#000000;stroke-width:0.25;stroke-miterlimit:10;" x1="-32" x2="160" y1="-24" y2="-24"/>
              <line style="fill:none;stroke:#000000;stroke-width:0.25;stroke-miterlimit:10;" x1="-32" x2="160" y1="-20" y2="-20"/>
              <line style="fill:none;stroke:#000000;stroke-width:0.25;stroke-miterlimit:10;" x1="-32" x2="160" y1="-16" y2="-16"/>
              <line style="fill:none;stroke:#000000;stroke-width:0.25;stroke-miterlimit:10;" x1="-32" x2="160" y1="-12" y2="-12"/>
              <line style="fill:none;stroke:#000000;stroke-width:0.25;stroke-miterlimit:10;" x1="-32" x2="160" y1="-8" y2="-8"/>
              <line style="fill:none;stroke:#000000;stroke-width:0.25;stroke-miterlimit:10;" x1="-32" x2="160" y1="-4" y2="-4"/>
              <line style="fill:none;stroke:#000000;stroke-width:0.25;stroke-miterlimit:10;" x1="-32" x2="160" y1="0" y2="0"/>
              <line style="fill:none;stroke:#000000;stroke-width:0.25;stroke-miterlimit:10;" x1="-32" x2="160" y1="4" y2="4"/>
              <line style="fill:none;stroke:#000000;stroke-width:0.25;stroke-miterlimit:10;" x1="-32" x2="160" y1="8" y2="8"/>
              <line style="fill:none;stroke:#000000;stroke-width:0.25;stroke-miterlimit:10;" x1="-32" x2="160" y1="12" y2="12"/>
              <line style="fill:none;stroke:#000000;stroke-width:0.25;stroke-miterlimit:10;" x1="-32" x2="160" y1="16" y2="16"/>
              <line style="fill:none;stroke:#000000;stroke-width:0.25;stroke-miterlimit:10;" x1="-32" x2="160" y1="20" y2="20"/>
              <line style="fill:none;stroke:#000000;stroke-width:0.25;stroke-miterlimit:10;" x1="-32" x2="160" y1="24" y2="24"/>
              <line style="fill:none;stroke:#000000;stroke-width:0.25;stroke-miterlimit:10;" x1="-32" x2="160" y1="28" y2="28"/>
              <line style="fill:none;stroke:#000000;stroke-width:0.25;stroke-miterlimit:10;" x1="-32" x2="160" y1="32" y2="32"/>
              <line style="fill:none;stroke:#000000;stroke-width:0.25;stroke-miterlimit:10;" x1="-32" x2="160" y1="36" y2="36"/>
              <line style="fill:none;stroke:#000000;stroke-width:0.25;stroke-miterlimit:10;" x1="-32" x2="160" y1="40" y2="40"/>
              <line style="fill:none;stroke:#000000;stroke-width:0.25;stroke-miterlimit:10;" x1="-32" x2="160" y1="44" y2="44"/>
              <line style="fill:none;stroke:#000000;stroke-width:0.25;stroke-miterlimit:10;" x1="-32" x2="160" y1="48" y2="48"/>
              <line style="fill:none;stroke:#000000;stroke-width:0.25;stroke-miterlimit:10;" x1="-32" x2="160" y1="52" y2="52"/>
              <line style="fill:none;stroke:#000000;stroke-width:0.25;stroke-miterlimit:10;" x1="-32" x2="160" y1="56" y2="56"/>
              <line style="fill:none;stroke:#000000;stroke-width:0.25;stroke-miterlimit:10;" x1="-32" x2="160" y1="60" y2="60"/>
              <line style="fill:none;stroke:#000000;stroke-width:0.25;stroke-miterlimit:10;" x1="-32" x2="160" y1="64" y2="64"/>
              <line style="fill:none;stroke:#000000;stroke-width:0.25;stroke-miterlimit:10;" x1="-32" x2="160" y1="68" y2="68"/>
              <line style="fill:none;stroke:#000000;stroke-width:0.25;stroke-miterlimit:10;" x1="-32" x2="160" y1="72" y2="72"/>
              <line style="fill:none;stroke:#000000;stroke-width:0.25;stroke-miterlimit:10;" x1="-32" x2="160" y1="76" y2="76"/>
              <line style="fill:none;stroke:#000000;stroke-width:0.25;stroke-miterlimit:10;" x1="-32" x2="160" y1="80" y2="80"/>
              <line style="fill:none;stroke:#000000;stroke-width:0.25;stroke-miterlimit:10;" x1="-32" x2="160" y1="84" y2="84"/>
              <line style="fill:none;stroke:#000000;stroke-width:0.25;stroke-miterlimit:10;" x1="-32" x2="160" y1="88" y2="88"/>
              <line style="fill:none;stroke:#000000;stroke-width:0.25;stroke-miterlimit:10;" x1="-32" x2="160" y1="92" y2="92"/>
              <line style="fill:none;stroke:#000000;stroke-width:0.25;stroke-miterlimit:10;" x1="-32" x2="160" y1="96" y2="96"/>
              <line style="fill:none;stroke:#000000;stroke-width:0.25;stroke-miterlimit:10;" x1="-32" x2="160" y1="100" y2="100"/>
              <line style="fill:none;stroke:#000000;stroke-width:0.25;stroke-miterlimit:10;" x1="-32" x2="160" y1="104" y2="104"/>
              <line style="fill:none;stroke:#000000;stroke-width:0.25;stroke-miterlimit:10;" x1="-32" x2="160" y1="108" y2="108"/>
              <line style="fill:none;stroke:#000000;stroke-width:0.25;stroke-miterlimit:10;" x1="-32" x2="160" y1="112" y2="112"/>
              <line style="fill:none;stroke:#000000;stroke-width:0.25;stroke-miterlimit:10;" x1="-32" x2="160" y1="116" y2="116"/>
              <line style="fill:none;stroke:#000000;stroke-width:0.25;stroke-miterlimit:10;" x1="-32" x2="160" y1="120" y2="120"/>
              <line style="fill:none;stroke:#000000;stroke-width:0.25;stroke-miterlimit:10;" x1="-32" x2="160" y1="124" y2="124"/>
              <line style="fill:none;stroke:#000000;stroke-width:0.25;stroke-miterlimit:10;" x1="-32" x2="160" y1="128" y2="128"/>
              <line style="fill:none;stroke:#000000;stroke-width:0.25;stroke-miterlimit:10;" x1="-32" x2="160" y1="132" y2="132"/>
              <line style="fill:none;stroke:#000000;stroke-width:0.25;stroke-miterlimit:10;" x1="-32" x2="160" y1="136" y2="136"/>
              <line style="fill:none;stroke:#000000;stroke-width:0.25;stroke-miterlimit:10;" x1="-32" x2="160" y1="140" y2="140"/>
              <line style="fill:none;stroke:#000000;stroke-width:0.25;stroke-miterlimit:10;" x1="-32" x2="160" y1="144" y2="144"/>
              <line style="fill:none;stroke:#000000;stroke-width:0.25;stroke-miterlimit:10;" x1="-32" x2="160" y1="148" y2="148"/>
              <line style="fill:none;stroke:#000000;stroke-width:0.25;stroke-miterlimit:10;" x1="-32" x2="160" y1="152" y2="152"/>
              <line style="fill:none;stroke:#000000;stroke-width:0.25;stroke-miterlimit:10;" x1="-32" x2="160" y1="156" y2="156"/>
            </g>
            <path d="M159.75-31.75v191.5h-191.5v-191.5H159.75 M160-32H-32v192h192V-32L160-32z"/>
          </g>
        </g>
        <g>
          <rect height="128" style="opacity:0.3;fill:#F44336;" width="4" x="0" y="0"/>
          <rect height="128" style="opacity:0.3;fill:#F44336;" width="4" x="124" y="0"/>
          <rect height="120" style="opacity:0.3;fill:#F44336;" transform="matrix(-1.836970e-16 1 -1 -1.836970e-16 66 -62)" width="4" x="62" y="-58"/>
          <rect height="120" style="opacity:0.3;fill:#F44336;" transform="matrix(-1.836970e-16 1 -1 -1.836970e-16 190 62)" width="4" x="62" y="66"/>
        </g>
      </g>
    </g>
  </g>
</svg>
